DVA
CUT[Muellerstoechterlein
    Da drunten in dem tiefen Tale]
CNR[da steht eine Muehle zum Mahlen]
REG[Europa, Mitteleuropa, Deutschland, Oberfranken]
KEY[D0141  08  F 4/4]
MEL[12  33333543  322_0_
    23  4_444654  433_0_
    5_  5_355_35  +1765_0_
    5  5_+155_35  4_243_
    5_  5_355_35  +1765_0_
    5  5_+155_35  4_243_ //] >>
FCT[Ballade]
CMT[Inzipit = Variante zum Lied]
